logos/phpstorm.svg

<?xml version="1.0" encoding="UTF-8"?>
<svg width="256px" height="256px" viewBox="0 0 256 256" version="1.1" xmlns="http://www.w3.org/2000/svg" preserveAspectRatio="xMidYMid">
    <title>PhpStorm</title>
    <defs>
        <linearGradient x1="40.1962634%" y1="64.0579993%" x2="55.5765239%" y2="47.9648996%" id="phpstormLinearGradient-1">
            <stop stop-color="#AF1DF5" offset="0%"></stop>
            <stop stop-color="#BC20E4" offset="21%"></stop>
            <stop stop-color="#DD29B8" offset="63%"></stop>
            <stop stop-color="#FF318C" offset="100%"></stop>
        </linearGradient>
        <linearGradient x1="42.8848611%" y1="78.6026201%" x2="63.3781297%" y2="-4.05749636%" id="phpstormLinearGradient-2">
            <stop stop-color="#6B57FF" offset="2%"></stop>
            <stop stop-color="#B74AF7" offset="42%"></stop>
            <stop stop-color="#FF318C" offset="75%"></stop>
        </linearGradient>
        <linearGradient x1="73.2580633%" y1="102.209324%" x2="32.0486817%" y2="-3.68844786%" id="phpstormLinearGradient-3">
            <stop stop-color="#293896" offset="0%"></stop>
            <stop stop-color="#3B3AA2" offset="8%"></stop>
            <stop stop-color="#6740C0" offset="29%"></stop>
            <stop stop-color="#8A44D8" offset="49%"></stop>
            <stop stop-color="#A347E9" offset="68%"></stop>
            <stop stop-color="#B249F3" offset="86%"></stop>
            <stop stop-color="#B74AF7" offset="100%"></stop>
        </linearGradient>
        <linearGradient x1="62.8702905%" y1="72.4464855%" x2="39.7469083%" y2="45.5677461%" id="phpstormLinearGradient-4">
            <stop stop-color="#6B57FF" offset="2%"></stop>
            <stop stop-color="#B74AF7" offset="78%"></stop>
        </linearGradient>
    </defs>
    <g>
        <polygon fill="url(#phpstormLinearGradient-1)" points="141.306667 45.0133333 132.773333 19.2 43.68 0 1.42108547e-14 49.4133333 48 73.9733333 48 45.0133333"></polygon>
        <polygon fill="url(#phpstormLinearGradient-2)" points="48 61.8133333 0 49.4133333 24.4 195.973333 47.92 195.786667"></polygon>
        <polygon fill="url(#phpstormLinearGradient-3)" points="208 45.0133333 124.506667 45.0133333 158.053333 15.2 222.693333 27.2 256 109.973333 208.026667 157.626667"></polygon>
        <polygon fill="url(#phpstormLinearGradient-4)" points="208.053333 108.88 208 205.013333 70.56 205.013333 74.1066667 225.92 160.4 256 256 198.773333"></polygon>
        <polygon fill="#000000" points="47 43.7706208 209 43.7706208 209 205.770621 47 205.770621"></polygon>
        <path d="M67.9466667,175.093333 L127.946667,175.093333 L127.946667,185.093333 L67.9466667,185.093333 L67.9466667,175.093333 Z M120.266667,116.96 L128.08,107.36 C132.988098,111.892531 139.374885,114.48894 146.053333,114.666667 C151.386667,114.666667 154.746667,112.506667 154.746667,108.986667 L154.746667,108.826667 C154.746667,107.463188 154.40415,106.367575 153.325307,105.375888 L153.082712,105.164915 C152.913278,105.025247 152.728242,104.887461 152.526457,104.751078 L152.211074,104.547498 C152.046958,104.446175 151.873097,104.345507 151.689008,104.245293 L151.307048,104.04541 C151.241067,104.012177 151.173913,103.978979 151.10557,103.94581 L150.68108,103.747069 C150.534726,103.680894 150.383468,103.614772 150.22716,103.548642 L149.742951,103.35017 C149.659677,103.317068 149.575105,103.283949 149.489218,103.250805 L148.957957,103.051594 C148.866734,103.018324 148.774159,102.985014 148.680215,102.951658 L148.099967,102.750901 C148.000471,102.717328 147.89957,102.683694 147.797246,102.64999 L147.166072,102.446881 L147.166072,102.446881 L146.499872,102.241755 L146.499872,102.241755 L145.797784,102.034254 C145.677731,101.999453 145.556147,101.964538 145.433013,101.929501 L144.675479,101.717766 L144.675479,101.717766 L143.879905,101.50276 L143.879905,101.50276 L141.440279,100.869585 L141.440279,100.869585 L140.673913,100.665287 L140.673913,100.665287 L139.548409,100.354857 C139.424978,100.320046 139.302094,100.285118 139.179761,100.250062 L138.452405,100.03811 L138.452405,100.03811 L137.738482,99.8225813 C137.620627,99.7863333 137.50334,99.7499148 137.386626,99.7133153 L136.693259,99.4914594 L136.693259,99.4914594 L136.013863,99.2647445 C135.901807,99.2265253 135.790342,99.1880822 135.679473,99.1494047 L135.021439,98.9144396 L135.021439,98.9144396 L134.377917,98.6733333 C134.271884,98.6326087 134.166465,98.5916068 134.061664,98.550317 L133.440311,98.2990373 L133.440311,98.2990373 L132.834007,98.0403342 C126.547573,95.2831846 122.785463,91.2135824 122.669432,83.1598658 L122.666667,82.5866667 C122.666667,71.794807 131.25627,64.6058814 143.346299,64.4557314 L143.733333,64.4533333 C151.848472,64.3098036 159.756715,67.0182352 166.08,72.1066667 L159.2,82.08 C154.704378,78.5630129 149.244516,76.4981244 143.546667,76.16 C138.48,76.16 135.813333,78.48 135.813333,81.4933333 L135.813333,81.68 C135.813333,83.9107246 136.665255,85.3236043 139.269543,86.6120293 L139.68415,86.8093601 C139.827041,86.8748721 139.974663,86.9401503 140.127136,87.0052883 L140.59923,87.2003748 L140.59923,87.2003748 L141.10116,87.3951808 L141.10116,87.3951808 L141.633656,87.5902673 L141.633656,87.5902673 L142.197446,87.7861954 L142.197446,87.7861954 L142.793258,87.9835263 L142.793258,87.9835263 L143.421821,88.1828209 L143.421821,88.1828209 L144.083864,88.3846404 L144.083864,88.3846404 L145.141297,88.6933311 L145.141297,88.6933311 L146.278158,89.0108589 L146.278158,89.0108589 L147.496906,89.3391173 L147.496906,89.3391173 L148.8,89.68 C149.087373,89.7552941 149.371792,89.8312378 149.653239,89.9078954 L150.488642,90.140074 C150.764123,90.2182235 151.036611,90.2971512 151.306086,90.3769213 L152.105451,90.618823 C152.237165,90.6595825 152.368121,90.7005688 152.498316,90.7417897 L153.270336,90.9919959 L153.270336,90.9919959 L154.023976,91.2482204 C154.39618,91.3779015 154.761445,91.509984 155.119705,91.6446849 L155.826862,91.9176422 C163.502391,94.9599883 167.764948,99.3396048 167.890479,107.365979 L167.893333,107.92 C167.893333,119.866667 158.773333,126.587182 145.786667,126.587182 C136.386338,126.621259 127.302158,123.19452 120.266667,116.96 Z M68,65.3333333 L92.5333333,65.3333333 C106.683733,65.3333333 115.319437,73.6445813 115.490736,85.6872661 L115.493333,86.2133333 C115.493333,100.08 104.693333,107.28 91.2533333,107.28 L81.3333333,107.28 L81.3333333,125.253333 L68,125.253333 L68,65.3333333 Z M91.6266667,95.5466667 C98.2133333,95.5466667 102.08,91.6266667 102.08,86.48 L102.08,86.32 C102.08,80.4 97.9733333,77.2266667 91.4133333,77.2266667 L81.3333333,77.2266667 L81.3333333,95.5466667 L91.6266667,95.5466667 Z" fill="#FFFFFF"></path>
    </g>
</svg>

<svg preserveAspectRatio="xMidYMid" viewBox="0 0 256 256" xmlns="http://www.w3.org/2000/svg">
  <defs>
    <linearGradient id="phpstorm_svg__a" x1="40.196%" x2="55.577%" y1="64.058%" y2="47.965%">
      <stop offset="0%" stop-color="#AF1DF5"/>
      <stop offset="21%" stop-color="#BC20E4"/>
      <stop offset="63%" stop-color="#DD29B8"/>
      <stop offset="100%" stop-color="#FF318C"/>
    </linearGradient>
    <linearGradient id="phpstorm_svg__b" x1="42.885%" x2="63.378%" y1="78.603%" y2="-4.057%">
      <stop offset="2%" stop-color="#6B57FF"/>
      <stop offset="42%" stop-color="#B74AF7"/>
      <stop offset="75%" stop-color="#FF318C"/>
    </linearGradient>
    <linearGradient id="phpstorm_svg__c" x1="73.258%" x2="32.049%" y1="102.209%" y2="-3.688%">
      <stop offset="0%" stop-color="#293896"/>
      <stop offset="8%" stop-color="#3B3AA2"/>
      <stop offset="29%" stop-color="#6740C0"/>
      <stop offset="49%" stop-color="#8A44D8"/>
      <stop offset="68%" stop-color="#A347E9"/>
      <stop offset="86%" stop-color="#B249F3"/>
      <stop offset="100%" stop-color="#B74AF7"/>
    </linearGradient>
    <linearGradient id="phpstorm_svg__d" x1="62.87%" x2="39.747%" y1="72.446%" y2="45.568%">
      <stop offset="2%" stop-color="#6B57FF"/>
      <stop offset="78%" stop-color="#B74AF7"/>
    </linearGradient>
  </defs>
  <path fill="url(#phpstorm_svg__a)" d="M141.307 45.013 132.773 19.2 43.68 0 0 49.413l48 24.56v-28.96z"/>
  <path fill="url(#phpstorm_svg__b)" d="m48 61.813-48-12.4 24.4 146.56 23.52-.186z"/>
  <path fill="url(#phpstorm_svg__c)" d="M208 45.013h-83.493L158.053 15.2l64.64 12L256 109.973l-47.973 47.654z"/>
  <path fill="url(#phpstorm_svg__d)" d="M208.053 108.88 208 205.013H70.56l3.547 20.907L160.4 256l95.6-57.227z"/>
  <path d="M47 43.77h162v162H47z"/>
  <path fill="#FFF" d="M67.947 175.093h60v10h-60v-10Zm52.32-58.133 7.813-9.6a27.573 27.573 0 0 0 17.973 7.307c5.334 0 8.694-2.16 8.694-5.68v-.16c0-1.364-.343-2.46-1.422-3.451l-.242-.211a7.3 7.3 0 0 0-.557-.414l-.315-.204a11.058 11.058 0 0 0-.522-.302l-.382-.2a15.25 15.25 0 0 0-.201-.1l-.425-.198a20.305 20.305 0 0 0-.454-.198l-.484-.199a27.087 27.087 0 0 0-.254-.1l-.531-.198a34.56 34.56 0 0 0-.278-.1l-.58-.201-.303-.101-.63-.203-.667-.205-.702-.208c-.12-.035-.242-.07-.365-.104l-.758-.212-.795-.215-2.44-.633-.766-.205-1.126-.31-.368-.105-.728-.212-.714-.215a67.125 67.125 0 0 1-.351-.11l-.694-.222-.68-.226a50.843 50.843 0 0 1-.334-.116l-.658-.235-.643-.24a23.119 23.119 0 0 1-.316-.124l-.622-.251-.606-.259c-6.286-2.757-10.049-6.826-10.165-14.88l-.002-.573c0-10.792 8.59-17.981 20.68-18.131l.386-.003a34.667 34.667 0 0 1 22.347 7.654l-6.88 9.973a28.107 28.107 0 0 0-15.653-5.92c-5.067 0-7.734 2.32-7.734 5.333v.187c0 2.23.852 3.644 3.457 4.932l.414.197c.143.066.29.131.443.196l.472.195.502.195.533.195.563.196.596.198.629.199.662.202 1.057.308 1.137.318 1.219.328 1.303.341c.287.075.572.151.853.228l.836.232c.275.078.548.157.817.237l.8.242c.131.04.262.082.392.123l.772.25.754.256c.372.13.737.262 1.096.397l.707.273c7.675 3.042 11.938 7.422 12.063 15.448l.003.554c0 11.947-9.12 18.667-22.106 18.667a38.27 38.27 0 0 1-25.52-9.627ZM68 65.333h24.533c14.15 0 22.786 8.312 22.958 20.354l.002.526c0 13.867-10.8 21.067-24.24 21.067h-9.92v17.973H68v-59.92Zm23.627 30.214c6.586 0 10.453-3.92 10.453-9.067v-.16c0-5.92-4.107-9.093-10.667-9.093h-10.08v18.32h10.294Z"/>
</svg>
